flaticon/business/cart-3.svg

<svg xmlns="http://www.w3.org/2000/svg" width="32" height="32" viewBox="0 0 24 24">
    <path d="M 4.472656 5.289062 L 4.472656 2.035156 C 4.472656 1.808594 4.292969 1.628906 4.066406 1.628906 L 3.195312 1.628906 C 3.015625 0.925781 2.382812 0.40625 1.628906 0.40625 C 0.730469 0.40625 0 1.136719 0 2.035156 C 0 2.929688 0.730469 3.660156 1.628906 3.660156 C 2.382812 3.660156 3.015625 3.140625 3.195312 2.441406 L 3.660156 2.441406 L 3.660156 19.527344 C 3.660156 19.75 3.84375 19.933594 4.066406 19.933594 L 6.929688 19.933594 C 6.429688 20.304688 6.101562 20.890625 6.101562 21.558594 C 6.101562 22.679688 7.015625 23.59375 8.136719 23.59375 C 9.257812 23.59375 10.167969 22.679688 10.167969 21.558594 C 10.167969 20.890625 9.839844 20.304688 9.34375 19.933594 L 16.691406 19.933594 C 16.191406 20.304688 15.863281 20.890625 15.863281 21.558594 C 15.863281 22.679688 16.777344 23.59375 17.898438 23.59375 C 19.019531 23.59375 19.933594 22.679688 19.933594 21.558594 C 19.933594 20.890625 19.605469 20.304688 19.105469 19.933594 L 21.558594 19.933594 C 21.785156 19.933594 21.964844 19.75 21.964844 19.527344 C 21.964844 19.300781 21.785156 19.117188 21.558594 19.117188 L 4.472656 19.117188 L 4.472656 15.863281 L 24 15.863281 L 24 5.289062 Z M 1.628906 2.847656 C 1.179688 2.847656 0.8125 2.484375 0.8125 2.035156 C 0.8125 1.585938 1.179688 1.21875 1.628906 1.21875 C 1.925781 1.21875 2.1875 1.386719 2.328125 1.628906 L 2.035156 1.628906 C 1.808594 1.628906 1.628906 1.808594 1.628906 2.035156 C 1.628906 2.257812 1.808594 2.441406 2.035156 2.441406 L 2.328125 2.441406 C 2.1875 2.683594 1.925781 2.847656 1.628906 2.847656 Z M 8.136719 22.78125 C 7.460938 22.78125 6.914062 22.230469 6.914062 21.558594 C 6.914062 20.886719 7.460938 20.339844 8.136719 20.339844 C 8.808594 20.339844 9.355469 20.886719 9.355469 21.558594 C 9.355469 22.230469 8.808594 22.78125 8.136719 22.78125 Z M 17.898438 22.78125 C 17.226562 22.78125 16.679688 22.230469 16.679688 21.558594 C 16.679688 20.886719 17.226562 20.339844 17.898438 20.339844 C 18.570312 20.339844 19.117188 20.886719 19.117188 21.558594 C 19.117188 22.230469 18.570312 22.78125 17.898438 22.78125 Z M 16.679688 8.542969 L 14.238281 8.542969 L 14.238281 6.101562 L 16.679688 6.101562 Z M 17.492188 6.101562 L 19.933594 6.101562 L 19.933594 8.542969 L 17.492188 8.542969 Z M 14.238281 9.355469 L 16.679688 9.355469 L 16.679688 11.796875 L 14.238281 11.796875 Z M 13.421875 11.796875 L 10.984375 11.796875 L 10.984375 9.355469 L 13.421875 9.355469 Z M 13.421875 8.542969 L 10.984375 8.542969 L 10.984375 6.101562 L 13.421875 6.101562 Z M 10.167969 8.542969 L 7.730469 8.542969 L 7.730469 6.101562 L 10.167969 6.101562 Z M 6.914062 8.542969 L 4.472656 8.542969 L 4.472656 6.101562 L 6.914062 6.101562 Z M 4.472656 9.355469 L 6.914062 9.355469 L 6.914062 11.796875 L 4.472656 11.796875 Z M 7.730469 9.355469 L 10.167969 9.355469 L 10.167969 11.796875 L 7.730469 11.796875 Z M 10.167969 12.609375 L 10.167969 15.050781 L 7.730469 15.050781 L 7.730469 12.609375 Z M 10.984375 12.609375 L 13.421875 12.609375 L 13.421875 15.050781 L 10.984375 15.050781 Z M 14.238281 12.609375 L 16.679688 12.609375 L 16.679688 15.050781 L 14.238281 15.050781 Z M 17.492188 12.609375 L 19.933594 12.609375 L 19.933594 15.050781 L 17.492188 15.050781 Z M 17.492188 11.796875 L 17.492188 9.355469 L 19.933594 9.355469 L 19.933594 11.796875 Z M 20.746094 9.355469 L 23.1875 9.355469 L 23.1875 11.796875 L 20.746094 11.796875 Z M 23.1875 8.542969 L 20.746094 8.542969 L 20.746094 6.101562 L 23.1875 6.101562 Z M 4.472656 12.609375 L 6.914062 12.609375 L 6.914062 15.050781 L 4.472656 15.050781 Z M 20.746094 15.050781 L 20.746094 12.609375 L 23.1875 12.609375 L 23.1875 15.050781 Z M 20.746094 15.050781"/>
</svg>

<svg xmlns="http://www.w3.org/2000/svg" width="32" height="32" viewBox="0 0 24 24">
    <path d="M4.473 5.29V2.034a.403.403 0 0 0-.407-.406h-.87A1.62 1.62 0 0 0 1.628.406 1.63 1.63 0 0 0 0 2.036C0 2.93.73 3.66 1.629 3.66c.754 0 1.387-.52 1.566-1.219h.465v17.086c0 .223.184.407.406.407H6.93a2.02 2.02 0 0 0-.828 1.625c0 1.12.914 2.035 2.035 2.035a2.027 2.027 0 1 0 1.207-3.66h7.347a2.02 2.02 0 0 0-.828 1.625c0 1.12.914 2.035 2.035 2.035a2.039 2.039 0 0 0 2.036-2.035 2.02 2.02 0 0 0-.829-1.625h2.454a.406.406 0 0 0 .406-.407c0-.226-.18-.41-.406-.41H4.473v-3.254H24V5.29zM1.629 2.847a.815.815 0 1 1 0-1.63c.297 0 .558.169.7.41h-.294a.406.406 0 1 0 0 .813h.293a.811.811 0 0 1-.7.407zM8.137 22.78a1.221 1.221 0 1 1 0 0zm9.761 0a1.22 1.22 0 1 1 0-2.441 1.22 1.22 0 0 1 0 2.441zM16.68 8.543h-2.442V6.102h2.442zm.812-2.441h2.442v2.441h-2.442zm-3.254 3.253h2.442v2.442h-2.442zm-.816 2.442h-2.438V9.355h2.438zm0-3.254h-2.438V6.102h2.438zm-3.254 0H7.73V6.102h2.438zm-3.254 0H4.473V6.102h2.441zm-2.441.812h2.441v2.442H4.473zm3.257 0h2.438v2.442H7.73zm2.438 3.254v2.442H7.73v-2.442zm.816 0h2.438v2.442h-2.438zm3.254 0h2.442v2.442h-2.442zm3.254 0h2.442v2.442h-2.442zm0-.812V9.355h2.442v2.442zm3.254-2.442h2.442v2.442h-2.442zm2.442-.812h-2.442V6.102h2.442zM4.473 12.609h2.441v2.442H4.473zm16.273 2.442v-2.442h2.442v2.442zm0 0"/>
</svg>
